X:190
T:Shilling a Gig
M:9/8
L:1/8
B:Thompson's Compleat Collection of 200 Favourite Country Dances, vol. 3 (London, 1773)
Z:Transcribed and edited by Flynn Titford-Mock, 2007
Z:abc's:AK/Fiddler's Companion
K:D
FGA ABc d3 | FGA AB=c B3::d2d d2d cBA | B2B B2B AFD :|
|: E3 BGE BGE | E3 BGE AFD | E3 BGE BGE | FGA dcd AFD :|

